src/plugins/kibana_overview/public/assets/kibana_graph_light.svg

<svg width="268" height="151" fill="none" xmlns="http://www.w3.org/2000/svg">
  <path fill="#F5F7FA" d="M0 0h268v151H0z"/>
  <g filter="url(#kibana_graph_light__filter0_d)">
    <rect x="20" y="20" width="228" height="111" rx="2" fill="#fff"/>
    <rect x="24" y="24" width="12" height="4" rx="1" fill="#54B399"/>
    <rect x="40" y="24" width="12" height="4" rx="1" fill="#6092C0"/>
    <rect x="56" y="24" width="12" height="4" rx="1" fill="#D36086"/>
    <rect x="72" y="24" width="12" height="4" rx="1" fill="#9170B8"/>
    <path d="M139 87l24 12m0 0l-24 12m24-12l24 12m-24-12h34m-34 0l24-12M89 55l16 20m0 0L71 63m34 12H81m24 0L71 87m34-12L89 95m16-20l16 20m-16-20h24m-24 0l16-20m-16 20l34-12m-34 12l34 12m0-48l24 12m0 0l-24 12m24-12l24-12m-24 12l24 12" stroke="#D3DAE6"/>
    <circle cx="105" cy="75" r="4.5" fill="#9170B8" stroke="#fff"/>
    <circle cx="163" cy="99" r="4.5" fill="#6092C0" stroke="#fff"/>
    <circle cx="163" cy="51" r="4.5" fill="#D36086" stroke="#fff"/>
    <circle cx="121" cy="55" r="4.5" fill="#54B399" stroke="#fff"/>
    <circle cx="139" cy="39" r="4.5" fill="#54B399" stroke="#fff"/>
    <circle cx="187" cy="39" r="4.5" fill="#54B399" stroke="#fff"/>
    <circle cx="187" cy="63" r="4.5" fill="#54B399" stroke="#fff"/>
    <circle cx="187" cy="111" r="4.5" fill="#54B399" stroke="#fff"/>
    <circle cx="197" cy="99" r="4.5" fill="#54B399" stroke="#fff"/>
    <circle cx="187" cy="87" r="4.5" fill="#54B399" stroke="#fff"/>
    <circle cx="139" cy="63" r="4.5" fill="#54B399" stroke="#fff"/>
    <circle cx="139" cy="87" r="4.5" fill="#54B399" stroke="#fff"/>
    <circle cx="139" cy="111" r="4.5" fill="#54B399" stroke="#fff"/>
    <circle cx="129" cy="75" r="4.5" fill="#54B399" stroke="#fff"/>
    <circle cx="121" cy="95" r="4.5" fill="#54B399" stroke="#fff"/>
    <circle cx="89" cy="55" r="4.5" fill="#54B399" stroke="#fff"/>
    <circle cx="81" cy="75" r="4.5" fill="#54B399" stroke="#fff"/>
    <circle cx="89" cy="95" r="4.5" fill="#54B399" stroke="#fff"/>
    <circle cx="71" cy="87" r="4.5" fill="#54B399" stroke="#fff"/>
    <circle cx="71" cy="63" r="4.5" fill="#54B399" stroke="#fff"/>
    <rect x="97.5" y="80.5" width="15" height="3" rx="1.5" fill="#98A2B3" stroke="#fff"/>
    <rect x="158.5" y="104.5" width="9" height="3" rx="1.5" fill="#98A2B3" stroke="#fff"/>
    <rect x="157.5" y="56.5" width="11" height="3" rx="1.5" fill="#98A2B3" stroke="#fff"/>
  </g>
  <g filter="url(#kibana_graph_light__filter1_d)">
    <rect x="204" y="12" width="52" height="56" rx="2" fill="#fff"/>
  </g>
  <rect x="208.5" y="56.5" width="43" height="7" rx=".5" fill="#fff" stroke="#D3DAE6"/>
  <rect x="208" y="16" width="26" height="2" rx="1" fill="#6A717D"/>
  <rect x="208" y="50" width="26" height="2" rx="1" fill="#6A717D"/>
  <rect x="212" y="22" width="29" height="2" rx="1" fill="#98A2B3"/>
  <rect x="212" y="28" width="23" height="2" rx="1" fill="#98A2B3"/>
  <rect x="212" y="34" width="26" height="2" rx="1" fill="#98A2B3"/>
  <rect x="212" y="40" width="33" height="2" rx="1" fill="#98A2B3"/>
  <circle cx="209" cy="23" r="1" fill="#54B399"/>
  <circle cx="209" cy="29" r="1" fill="#6092C0"/>
  <circle cx="209" cy="35" r="1" fill="#D36086"/>
  <circle cx="209" cy="41" r="1" fill="#DD0A73"/>
  <defs>
    <filter id="kibana_graph_light__filter0_d" x="12" y="14" width="244" height="127" filterUnits="userSpaceOnUse" color-interpolation-filters="sRGB">
      <feFlood flood-opacity="0" result="BackgroundImageFix"/>
      <feColorMatrix in="SourceAlpha" values="0 0 0 0 0 0 0 0 0 0 0 0 0 0 0 0 0 0 127 0"/>
      <feOffset dy="2"/>
      <feGaussianBlur stdDeviation="4"/>
      <feColorMatrix values="0 0 0 0 0 0 0 0 0 0 0 0 0 0 0 0 0 0 0.05 0"/>
      <feBlend in2="BackgroundImageFix" result="effect1_dropShadow"/>
      <feBlend in="SourceGraphic" in2="effect1_dropShadow" result="shape"/>
    </filter>
    <filter id="kibana_graph_light__filter1_d" x="196" y="6" width="68" height="72" filterUnits="userSpaceOnUse" color-interpolation-filters="sRGB">
      <feFlood flood-opacity="0" result="BackgroundImageFix"/>
      <feColorMatrix in="SourceAlpha" values="0 0 0 0 0 0 0 0 0 0 0 0 0 0 0 0 0 0 127 0"/>
      <feOffset dy="2"/>
      <feGaussianBlur stdDeviation="4"/>
      <feColorMatrix values="0 0 0 0 0 0 0 0 0 0 0 0 0 0 0 0 0 0 0.05 0"/>
      <feBlend in2="BackgroundImageFix" result="effect1_dropShadow"/>
      <feBlend in="SourceGraphic" in2="effect1_dropShadow" result="shape"/>
    </filter>
  </defs>
</svg>

<svg width="268" height="151" viewBox="0 0 268 151" fill="none" xmlns="http://www.w3.org/2000/svg">
<rect width="268" height="151" fill="#F5F7FA"/>
<g filter="url(#filter0_d)">
<rect x="20" y="20" width="228" height="111" rx="2" fill="white"/>
<rect x="24" y="24" width="12" height="4" rx="1" fill="#54B399"/>
<rect x="40" y="24" width="12" height="4" rx="1" fill="#6092C0"/>
<rect x="56" y="24" width="12" height="4" rx="1" fill="#D36086"/>
<rect x="72" y="24" width="12" height="4" rx="1" fill="#9170B8"/>
<path d="M139 87L163 99M163 99L139 111M163 99L187 111M163 99H197M163 99L187 87" stroke="#D3DAE6"/>
<path d="M89 55L105 75M105 75L71 63M105 75H81M105 75L71 87M105 75L89 95M105 75L121 95M105 75H129M105 75L121 55M105 75L139 63M105 75L139 87" stroke="#D3DAE6"/>
<path d="M139 39L163 51M163 51L139 63M163 51L187 39M163 51L187 63" stroke="#D3DAE6"/>
<circle cx="105" cy="75" r="4.5" fill="#9170B8" stroke="white"/>
<circle cx="163" cy="99" r="4.5" fill="#6092C0" stroke="white"/>
<circle cx="163" cy="51" r="4.5" fill="#D36086" stroke="white"/>
<circle cx="121" cy="55" r="4.5" fill="#54B399" stroke="white"/>
<circle cx="139" cy="39" r="4.5" fill="#54B399" stroke="white"/>
<circle cx="187" cy="39" r="4.5" fill="#54B399" stroke="white"/>
<circle cx="187" cy="63" r="4.5" fill="#54B399" stroke="white"/>
<circle cx="187" cy="111" r="4.5" fill="#54B399" stroke="white"/>
<circle cx="197" cy="99" r="4.5" fill="#54B399" stroke="white"/>
<circle cx="187" cy="87" r="4.5" fill="#54B399" stroke="white"/>
<circle cx="139" cy="63" r="4.5" fill="#54B399" stroke="white"/>
<circle cx="139" cy="87" r="4.5" fill="#54B399" stroke="white"/>
<circle cx="139" cy="111" r="4.5" fill="#54B399" stroke="white"/>
<circle cx="129" cy="75" r="4.5" fill="#54B399" stroke="white"/>
<circle cx="121" cy="95" r="4.5" fill="#54B399" stroke="white"/>
<circle cx="89" cy="55" r="4.5" fill="#54B399" stroke="white"/>
<circle cx="81" cy="75" r="4.5" fill="#54B399" stroke="white"/>
<circle cx="89" cy="95" r="4.5" fill="#54B399" stroke="white"/>
<circle cx="71" cy="87" r="4.5" fill="#54B399" stroke="white"/>
<circle cx="71" cy="63" r="4.5" fill="#54B399" stroke="white"/>
<rect x="97.5" y="80.5" width="15" height="3" rx="1.5" fill="#98A2B3" stroke="white"/>
<rect x="158.5" y="104.5" width="9" height="3" rx="1.5" fill="#98A2B3" stroke="white"/>
<rect x="157.5" y="56.5" width="11" height="3" rx="1.5" fill="#98A2B3" stroke="white"/>
</g>
<g filter="url(#filter1_d)">
<rect x="204" y="12" width="52" height="56" rx="2" fill="white"/>
</g>
<rect x="208.5" y="56.5" width="43" height="7" rx="0.5" fill="white" stroke="#D3DAE6"/>
<rect x="208" y="16" width="26" height="2" rx="1" fill="#6A717D"/>
<rect x="208" y="50" width="26" height="2" rx="1" fill="#6A717D"/>
<rect x="212" y="22" width="29" height="2" rx="1" fill="#98A2B3"/>
<rect x="212" y="28" width="23" height="2" rx="1" fill="#98A2B3"/>
<rect x="212" y="34" width="26" height="2" rx="1" fill="#98A2B3"/>
<rect x="212" y="40" width="33" height="2" rx="1" fill="#98A2B3"/>
<circle cx="209" cy="23" r="1" fill="#54B399"/>
<circle cx="209" cy="29" r="1" fill="#6092C0"/>
<circle cx="209" cy="35" r="1" fill="#D36086"/>
<circle cx="209" cy="41" r="1" fill="#DD0A73"/>
<defs>
<filter id="filter0_d" x="12" y="14" width="244" height="127" filterUnits="userSpaceOnUse" color-interpolation-filters="sRGB">
<feFlood flood-opacity="0" result="BackgroundImageFix"/>
<feColorMatrix in="SourceAlpha" type="matrix" values="0 0 0 0 0 0 0 0 0 0 0 0 0 0 0 0 0 0 127 0"/>
<feOffset dy="2"/>
<feGaussianBlur stdDeviation="4"/>
<feColorMatrix type="matrix" values="0 0 0 0 0 0 0 0 0 0 0 0 0 0 0 0 0 0 0.05 0"/>
<feBlend mode="normal" in2="BackgroundImageFix" result="effect1_dropShadow"/>
<feBlend mode="normal" in="SourceGraphic" in2="effect1_dropShadow" result="shape"/>
</filter>
<filter id="filter1_d" x="196" y="6" width="68" height="72" filterUnits="userSpaceOnUse" color-interpolation-filters="sRGB">
<feFlood flood-opacity="0" result="BackgroundImageFix"/>
<feColorMatrix in="SourceAlpha" type="matrix" values="0 0 0 0 0 0 0 0 0 0 0 0 0 0 0 0 0 0 127 0"/>
<feOffset dy="2"/>
<feGaussianBlur stdDeviation="4"/>
<feColorMatrix type="matrix" values="0 0 0 0 0 0 0 0 0 0 0 0 0 0 0 0 0 0 0.05 0"/>
<feBlend mode="normal" in2="BackgroundImageFix" result="effect1_dropShadow"/>
<feBlend mode="normal" in="SourceGraphic" in2="effect1_dropShadow" result="shape"/>
</filter>
</defs>
</svg>
